resources/haticons/SVG/snippet_folder.svg

<!-- Generated by IcoMoon.io -->
<svg version="1.1" xmlns="http://www.w3.org/2000/svg" width="24" height="24" viewBox="0 0 24 24">
<title>snippet_folder</title>
<path d="M15.891 10.5l1.594 1.641v3.375h-3v-5.016h1.406zM21.984 8.016v9.984q0 0.844-0.586 1.43t-1.383 0.586h-16.031q-0.797 0-1.383-0.586t-0.586-1.43v-12q0-0.844 0.586-1.43t1.383-0.586h6l2.016 2.016h8.016q0.797 0 1.383 0.586t0.586 1.43zM18.984 11.484l-2.484-2.484h-3.516v8.016h6v-5.531z"></path>
</svg>

<svg xmlns="http://www.w3.org/2000/svg" width="24" height="24"><path d="M15.891 10.5l1.594 1.641v3.375h-3V10.5h1.406zm6.093-2.484V18q0 .844-.586 1.43t-1.383.586H3.984q-.797 0-1.383-.586T2.015 18V6q0-.844.586-1.43t1.383-.586h6L12 6h8.016q.797 0 1.383.586t.586 1.43zm-3 3.468L16.5 9h-3.516v8.016h6v-5.531z"/></svg>
